img/git.svg

<?xml version="1.0" ?><svg enable-background="new 0 0 24 24" id="Layer_1" version="1.1" viewBox="0 0 24 24" xml:space="preserve" xmlns="http://www.w3.org/2000/svg" xmlns:xlink="http://www.w3.org/1999/xlink"><g><path d="M23.5615234,10.9320221c-0.0009766,0-0.0009766-0.0004883-0.0009766-0.0004883L13.0615234,0.4256744   c-0.5664063-0.567749-1.5576172-0.5672607-2.1220703-0.0004883L0.4384766,10.9320221C0.15625,11.2158966,0,11.5926056,0,11.9927521   c0,0.4006348,0.15625,0.777771,0.4394531,1.0611572l10.4990234,10.5058594   C11.2216797,23.8436432,11.5986328,24.0000153,12,24.0000153s0.7783203-0.1563721,1.0605469-0.4397583l10.5-10.5063477   C23.84375,12.7705231,24,12.3933868,24,11.9927521C24,11.5926056,23.84375,11.2158966,23.5615234,10.9320221z" fill="#EF473B"/><path d="M23.6809692,12.6898956l-10.609375,10.6157837   C12.786438,23.5919952,12.4055176,23.7500153,12,23.7500153s-0.786438-0.15802-1.0725708-0.4448242L0.3190308,12.6898956   c-0.1239624-0.1240845-0.218689-0.2683716-0.2921143-0.4222412c0.0545654,0.2959595,0.1953125,0.5689087,0.4125366,0.7862549   l10.4990234,10.5058594C11.2216797,23.8436432,11.5986328,24.0000153,12,24.0000153s0.7783203-0.1563721,1.0605469-0.4397583   l10.5-10.5063477c0.2172241-0.2173462,0.3580322-0.4902954,0.4125977-0.7862549   C23.8997192,12.421524,23.8049316,12.5658112,23.6809692,12.6898956z" fill="#010101" opacity="0.1"/><path d="M17,10.0000153c-0.3748779,0-0.7219849,0.1100464-1.0222168,0.2902832l-2.2680664-2.2680664   C13.8898926,7.7220612,14,7.3749542,14,7.0000153c0-1.1030273-0.8974609-2-2-2   c-0.369873,0-0.7122803,0.1077881-1.0098267,0.2835693L8.536438,2.8295441L7.8295898,3.5367584l2.4536743,2.4539795   C10.1077271,6.2881012,10,6.6303253,10,7.0000153c0,0.9293213,0.6400146,1.7053833,1.5,1.9289551v6.1420898   C10.6400146,15.294632,10,16.070694,10,17.0000153c0,1.1030273,0.8974609,2,2,2s2-0.8969727,2-2   c0-0.9293213-0.6400146-1.7053833-1.5-1.9289551V8.9289703c0.1767578-0.0459595,0.3425293-0.1158447,0.4968872-0.2055054   l2.2796631,2.2796631C15.1053467,11.2978058,15,11.6353302,15,12.0000153c0,1.1030273,0.8974609,2,2,2s2-0.8969727,2-2   S18.1025391,10.0000153,17,10.0000153z" fill="#FFFFFF"/><path d="M0.4384766,11.1820221L10.9394531,0.6751862   c0.5644531-0.5667725,1.5556641-0.5672607,2.1220703,0.0004883l10.4990234,10.5058594c0,0,0,0.0004883,0.0009766,0.0004883   c0.2523193,0.2537842,0.3969727,0.583252,0.4262695,0.935791C23.991272,12.075943,24,12.0352325,24,11.9927521   c0-0.4001465-0.15625-0.7768555-0.4384766-1.06073c-0.0009766,0-0.0009766-0.0004883-0.0009766-0.0004883L13.0615234,0.4256744   c-0.5664063-0.567749-1.5576172-0.5672607-2.1220703-0.0004883L0.4384766,10.9320221C0.15625,11.2158966,0,11.5926056,0,11.9927521   c0,0.0424194,0.008728,0.0831299,0.012207,0.124939C0.0415649,11.765152,0.1862183,11.4357452,0.4384766,11.1820221z" fill="#FFFFFF" opacity="0.2"/><linearGradient gradientUnits="userSpaceOnUse" id="SVGID_1_" x1="9.6692657" x2="18.3065948" y1="9.6760864" y2="18.3134155"><stop offset="0" style="stop-color:#010101;stop-opacity:0.1"/><stop offset="1" style="stop-color:#010101;stop-opacity:0"/></linearGradient><path d="M18.5488281,10.7503815C18.8265381,11.0938263,19,11.5248566,19,12.0000153   c0,1.1030273-0.8974609,2-2,2s-2-0.8969727-2-2c0-0.3646851,0.1053467-0.7022095,0.2765503-0.9968872L12.9968872,8.723465   C12.8425293,8.8131256,12.6767578,8.8830109,12.5,8.9289703v6.1420898c0.8599854,0.2235718,1.5,0.9996338,1.5,1.9289551   c0,1.1030273-0.8974609,2-2,2c-0.5114746,0-0.9738159-0.1986694-1.3278809-0.5157471l3.7318115,3.7318115l7.8029175-7.8076782   L18.5488281,10.7503815z M13.7097168,8.0222321l2.2680664,2.2680664C16.2780151,10.1100616,16.6251221,10.0000153,17,10.0000153   c0.4750977,0,0.90625,0.1735229,1.2498169,0.451355l-4.6776733-4.6777344L13.5697021,5.77565   C13.835144,6.1150665,14,6.5366364,14,7.0000153C14,7.3749542,13.8898926,7.7220612,13.7097168,8.0222321z" fill="url(#SVGID_1_)"/><linearGradient gradientUnits="userSpaceOnUse" id="SVGID_2_" x1="2.0138185" x2="21.983366" y1="7.3399205" y2="16.6518726"><stop offset="0" style="stop-color:#FFFFFF;stop-opacity:0.2"/><stop offset="1" style="stop-color:#FFFFFF;stop-opacity:0"/></linearGradient><path d="M23.5615234,10.9320221c-0.0009766,0-0.0009766-0.0004883-0.0009766-0.0004883L13.0615234,0.4256744   c-0.5664063-0.567749-1.5576172-0.5672607-2.1220703-0.0004883L0.4384766,10.9320221C0.15625,11.2158966,0,11.5926056,0,11.9927521   c0,0.4006348,0.15625,0.777771,0.4394531,1.0611572l10.4990234,10.5058594   C11.2216797,23.8436432,11.5986328,24.0000153,12,24.0000153s0.7783203-0.1563721,1.0605469-0.4397583l10.5-10.5063477   C23.84375,12.7705231,24,12.3933868,24,11.9927521C24,11.5926056,23.84375,11.2158966,23.5615234,10.9320221z" fill="url(#SVGID_2_)"/></g><g/><g/><g/><g/><g/><g/><g/><g/><g/><g/><g/><g/><g/><g/><g/></svg>

<?xml version="1.0" encoding="UTF-8"?>
<svg enable-background="new 0 0 24 24" version="1.1" viewBox="0 0 24 24" xml:space="preserve" xmlns="http://www.w3.org/2000/svg"><path d="m23.562 10.932c-9.766e-4 0-9.766e-4 -4.883e-4 -9.766e-4 -4.883e-4l-10.499-10.506c-0.56641-0.56775-1.5576-0.56726-2.1221-4.883e-4l-10.501 10.507c-0.28223 0.28387-0.43848 0.66058-0.43848 1.0607 0 0.40063 0.15625 0.77777 0.43945 1.0612l10.499 10.506c0.2832 0.28387 0.66016 0.44025 1.0615 0.44025s0.77832-0.15637 1.0605-0.43976l10.5-10.506c0.2832-0.28339 0.43945-0.66052 0.43945-1.0612 0-0.40015-0.15625-0.77686-0.43848-1.0607z" fill="#EF473B"/><path d="m23.681 12.69-10.609 10.616c-0.28516 0.28632-0.66608 0.44434-1.0716 0.44434s-0.78644-0.15802-1.0726-0.44482l-10.608-10.615c-0.12396-0.12408-0.21869-0.26837-0.29211-0.42224 0.054565 0.29596 0.19531 0.56891 0.41254 0.78625l10.499 10.506c0.2832 0.28387 0.66016 0.44025 1.0615 0.44025s0.77832-0.15637 1.0605-0.43976l10.5-10.506c0.21722-0.21735 0.35803-0.4903 0.4126-0.78625-0.073425 0.15387-0.16821 0.29816-0.29218 0.42224z" fill="#010101" opacity=".1"/><path d="m17 10c-0.37488 0-0.72198 0.11005-1.0222 0.29028l-2.2681-2.2681c0.18018-0.30017 0.29028-0.64728 0.29028-1.0222 0-1.103-0.89746-2-2-2-0.36987 0-0.71228 0.10779-1.0098 0.28357l-2.4537-2.454-0.70685 0.70721 2.4537 2.454c-0.17554 0.29736-0.28326 0.63959-0.28326 1.0093 0 0.92932 0.64001 1.7054 1.5 1.929v6.1421c-0.85999 0.22357-1.5 0.99963-1.5 1.929 0 1.103 0.89746 2 2 2s2-0.89697 2-2c0-0.92932-0.64001-1.7054-1.5-1.929v-6.1421c0.17676-0.04596 0.34253-0.11584 0.49689-0.20551l2.2797 2.2797c-0.1712 0.29468-0.27655 0.6322-0.27655 0.99689 0 1.103 0.89746 2 2 2s2-0.89697 2-2-0.89746-2-2-2z" fill="#fff"/><path d="m0.43848 11.182 10.501-10.507c0.56445-0.56677 1.5557-0.56726 2.1221 4.883e-4l10.499 10.506s0 4.883e-4 9.766e-4 4.883e-4c0.25232 0.25378 0.39697 0.58325 0.42627 0.93579 0.0034791-0.04187 0.012207-0.082581 0.012207-0.12506 0-0.40015-0.15625-0.77686-0.43848-1.0607-9.766e-4 0-9.766e-4 -4.883e-4 -9.766e-4 -4.883e-4l-10.499-10.506c-0.56641-0.56775-1.5576-0.56726-2.1221-4.883e-4l-10.501 10.507c-0.28223 0.28387-0.43848 0.66058-0.43848 1.0607 0 0.042419 0.008728 0.08313 0.012207 0.12494 0.029358-0.35254 0.17401-0.68195 0.42627-0.93567z" fill="#fff" opacity=".2"/><linearGradient id="b" x1="9.6693" x2="18.307" y1="9.6761" y2="18.313" gradientUnits="userSpaceOnUse"><stop stop-color="#010101" stop-opacity=".1" offset="0"/><stop stop-color="#010101" stop-opacity="0" offset="1"/></linearGradient><path d="m18.549 10.75c0.27771 0.34344 0.45117 0.77448 0.45117 1.2496 0 1.103-0.89746 2-2 2s-2-0.89697-2-2c0-0.36469 0.10535-0.70221 0.27655-0.99689l-2.2797-2.2797c-0.15436 0.089661-0.32013 0.15955-0.49689 0.20551v6.1421c0.85999 0.22357 1.5 0.99963 1.5 1.929 0 1.103-0.89746 2-2 2-0.51147 0-0.97382-0.19867-1.3279-0.51575l3.7318 3.7318 7.8029-7.8077-3.658-3.658zm-4.8391-2.7281 2.2681 2.2681c0.30023-0.18024 0.64734-0.29028 1.0222-0.29028 0.4751 0 0.90625 0.17352 1.2498 0.45136l-4.6777-4.6777-0.0024415 0.0020141c0.26544 0.33942 0.4303 0.76099 0.4303 1.2244 0 0.37494-0.11011 0.72205-0.29028 1.0222z" fill="url(#b)"/><linearGradient id="a" x1="2.0138" x2="21.983" y1="7.3399" y2="16.652" gradientUnits="userSpaceOnUse"><stop stop-color="#fff" stop-opacity=".2" offset="0"/><stop stop-color="#fff" stop-opacity="0" offset="1"/></linearGradient><path d="m23.562 10.932c-9.766e-4 0-9.766e-4 -4.883e-4 -9.766e-4 -4.883e-4l-10.499-10.506c-0.56641-0.56775-1.5576-0.56726-2.1221-4.883e-4l-10.501 10.507c-0.28223 0.28387-0.43848 0.66058-0.43848 1.0607 0 0.40063 0.15625 0.77777 0.43945 1.0612l10.499 10.506c0.2832 0.28387 0.66016 0.44025 1.0615 0.44025s0.77832-0.15637 1.0605-0.43976l10.5-10.506c0.2832-0.28339 0.43945-0.66052 0.43945-1.0612 0-0.40015-0.15625-0.77686-0.43848-1.0607z" fill="url(#a)"/></svg>
